X: 1
T:The Gathering  "K.H.T.S. 95"
M:6/8
L:1/8
Q:80
C:by D.E. Hjalmarson
S:Seconds
K:HP
|: c2{GdG}c{GdG}e2f|
{gcd}c2f{g}e{g}c2|
{g}c2{GdG}c{GdG}ed2|  !
{gde}df2{gcd}c3| |
f2{GdG}fc2{GdG}c|
{g}c2{g}e{g}d{g}B2|  !
{g}c2{GdG}c{g}eA2|
{g}cd2c3:| |:
{g}ec2{gfg}f2c|  !
a2f{g}c3|
{g}ec2{gfg}f2c|
af2{g}c3| |  !
{gcd}c2f{g}e{g}c2|
{GdG}f2e{g}d{g}B2|
{g}c2{GdG}c{g}eA2|  !
{g}cd2c3:|
